icons/Pinia-Dark.svg

<svg width="256" height="256" viewBox="0 0 256 256" fill="none" xmlns="http://www.w3.org/2000/svg">
<g clip-path="url(#clip0_33_887)">
<path d="M196 0H60C26.8629 0 0 26.8629 0 60V196C0 229.137 26.8629 256 60 256H196C229.137 256 256 229.137 256 196V60C256 26.8629 229.137 0 196 0Z" fill="#242938"/>
<g clip-path="url(#clip1_33_887)">
<path fill-rule="evenodd" clip-rule="evenodd" d="M121.463 124.778C136.641 110.336 132.013 92.4779 118.271 70.8393C104.53 49.2007 76.8633 41.5059 71.7008 46.4178C66.5384 51.3298 65.3889 86.443 79.1302 108.082C92.8716 129.72 106.284 139.22 121.463 124.778Z" fill="url(#paint0_linear_33_887)"/>
<path fill-rule="evenodd" clip-rule="evenodd" d="M134.584 126.783C145.808 144.457 160.817 137.992 179.397 120.313C197.978 102.634 205.686 68.774 201.869 62.7628C198.051 56.7515 169.034 57.0574 150.454 74.7361C131.874 92.4148 123.36 109.109 134.584 126.783Z" fill="url(#paint1_linear_33_887)"/>
<path fill-rule="evenodd" clip-rule="evenodd" d="M128.444 117.059C147.08 119.342 154.412 102.14 157.834 74.3371C161.255 46.5337 147.173 17.1501 140.834 16.3735C134.496 15.597 113.196 40.6461 109.775 68.4495C106.353 96.2529 109.807 114.775 128.444 117.059Z" fill="url(#paint2_linear_33_887)"/>
<path fill-rule="evenodd" clip-rule="evenodd" d="M123.756 240C162.84 240 194.536 228.661 194.536 177.24C194.536 125.819 162.84 83.6226 123.756 83.6226C84.6715 83.6226 53 125.819 53 177.24C53 228.661 84.6715 240 123.756 240Z" fill="url(#paint3_linear_33_887)"/>
<path d="M159.505 166.742C165.088 166.742 169.614 164.64 169.614 162.046C169.614 159.453 165.088 157.35 159.505 157.35C153.921 157.35 149.395 159.453 149.395 162.046C149.395 164.64 153.921 166.742 159.505 166.742Z" fill="#EAADCC"/>
<path d="M84.637 163.889C90.1789 164.569 94.928 163.033 95.2444 160.459C95.5609 157.885 91.325 155.247 85.7831 154.567C80.2413 153.888 75.4922 155.424 75.1757 157.998C74.8592 160.572 79.0952 163.21 84.637 163.889Z" fill="#EAADCC"/>
<path d="M130.232 160.383C127.19 162.853 123.675 163.86 119.689 163.405C115.703 162.95 112.748 161.298 110.825 158.447" stroke="black" stroke-width="6" stroke-linecap="round" stroke-linejoin="round"/>
<path fill-rule="evenodd" clip-rule="evenodd" d="M91.079 135.944C93.8691 135.847 96.4345 136.888 98.3268 138.651C100.219 140.413 101.438 142.896 101.536 145.683C101.633 148.47 100.591 151.032 98.8265 152.921C97.0621 154.811 94.5757 156.028 91.7855 156.126C88.9956 156.223 86.4304 155.181 84.5383 153.419C82.6462 151.657 81.4272 149.173 81.3297 146.387C81.2321 143.6 82.2745 141.038 84.0387 139.148C85.803 137.259 88.2891 136.041 91.079 135.944Z" fill="black"/>
<path fill-rule="evenodd" clip-rule="evenodd" d="M91.6101 144.384C91.5466 142.57 90.0218 141.15 88.206 141.213C86.3891 141.277 84.9678 142.799 85.0314 144.613C85.0949 146.428 86.6192 147.847 88.436 147.784C90.2518 147.72 91.6737 146.198 91.6101 144.384Z" fill="white"/>
<path fill-rule="evenodd" clip-rule="evenodd" d="M152.335 138.507C155.125 138.41 157.69 139.451 159.582 141.213C161.475 142.975 162.694 145.459 162.791 148.245C162.889 151.032 161.846 153.594 160.082 155.484C158.318 157.374 155.832 158.591 153.041 158.688C150.251 158.785 147.686 157.744 145.794 155.981C143.902 154.219 142.683 151.736 142.585 148.949C142.487 146.163 143.53 143.601 145.294 141.711C147.059 139.821 149.545 138.604 152.335 138.507Z" fill="black"/>
<path d="M100.126 145.732C100.294 150.528 96.5381 154.551 91.7367 154.718C86.9357 154.885 82.9079 151.133 82.7398 146.337C82.5717 141.541 86.3271 137.519 91.128 137.352C95.9295 137.185 99.9578 140.936 100.126 145.732ZM102.945 145.634C102.723 139.283 97.3878 134.314 91.0293 134.536C84.6713 134.757 79.6979 140.084 79.9205 146.435C80.1431 152.786 85.4772 157.755 91.8354 157.534C98.194 157.313 103.168 151.985 102.945 145.634Z" fill="white" stroke="white" stroke-width="3"/>
<path d="M161.381 148.295C161.549 153.091 157.794 157.114 152.993 157.281C148.192 157.448 144.163 153.696 143.995 148.9C143.827 144.104 147.583 140.081 152.384 139.914C157.185 139.747 161.213 143.499 161.381 148.295ZM164.201 148.197C163.978 141.846 158.644 136.877 152.285 137.098C145.927 137.32 140.953 142.647 141.176 148.998C141.398 155.349 146.733 160.318 153.091 160.097C159.45 159.875 164.423 154.548 164.201 148.197Z" fill="white" stroke="white" stroke-width="3"/>
<path fill-rule="evenodd" clip-rule="evenodd" d="M152.865 146.947C152.802 145.133 151.277 143.713 149.461 143.776C147.645 143.839 146.223 145.361 146.287 147.176C146.35 148.99 147.875 150.41 149.691 150.347C151.508 150.284 152.929 148.761 152.865 146.947Z" fill="white"/>
<path d="M70.1631 182.004L104.959 218.163" stroke="#ECB732" stroke-width="11" stroke-linecap="round"/>
<path d="M100.257 186.23L78.1567 209.711" stroke="#ECB732" stroke-width="11" stroke-linecap="round"/>
<path d="M176.903 182.004L142.107 218.163" stroke="#ECB732" stroke-width="11" stroke-linecap="round"/>
<path d="M146.809 186.23L168.909 209.711" stroke="#ECB732" stroke-width="11" stroke-linecap="round"/>
<path d="M137.875 102.172L114.834 125.182" stroke="#FFC73B" stroke-width="11" stroke-linecap="round"/>
<path d="M133.173 125.182L110.132 102.172" stroke="#FFC73B" stroke-width="11" stroke-linecap="round"/>
</g>
</g>
<defs>
<linearGradient id="paint0_linear_33_887" x1="7650.74" y1="-5867.43" x2="13921.9" y2="11695.8" gradientUnits="userSpaceOnUse">
<stop stop-color="#52CE63"/>
<stop offset="1" stop-color="#51A256"/>
</linearGradient>
<linearGradient id="paint1_linear_33_887" x1="6131.59" y1="7642.74" x2="-11449.7" y2="13929.1" gradientUnits="userSpaceOnUse">
<stop stop-color="#52CE63"/>
<stop offset="1" stop-color="#51A256"/>
</linearGradient>
<linearGradient id="paint2_linear_33_887" x1="7781.96" y1="952.47" x2="4321.49" y2="29199.5" gradientUnits="userSpaceOnUse">
<stop stop-color="#8AE99C"/>
<stop offset="1" stop-color="#52CE63"/>
</linearGradient>
<linearGradient id="paint3_linear_33_887" x1="23250" y1="13116.7" x2="19508.6" y2="74634.6" gradientUnits="userSpaceOnUse">
<stop stop-color="#FFE56C"/>
<stop offset="1" stop-color="#FFC63A"/>
</linearGradient>
<clipPath id="clip0_33_887">
<rect width="256" height="256" fill="white"/>
</clipPath>
<clipPath id="clip1_33_887">
<rect width="150" height="224" fill="white" transform="translate(53 16)"/>
</clipPath>
</defs>
</svg>

<svg xmlns="http://www.w3.org/2000/svg" width="256" height="256" fill="none" viewBox="0 0 256 256"><g clip-path="url(#a)"><path fill="#242938" d="M196 0H60A60 60 0 0 0 0 60v136a60 60 0 0 0 60 60h136a60 60 0 0 0 60-60V60a60 60 0 0 0-60-60"/><g clip-path="url(#b)"><path fill="url(#c)" fill-rule="evenodd" d="M121.46 124.78c15.18-14.44 10.55-32.3-3.19-53.94S76.87 41.5 71.7 46.42c-5.16 4.91-6.31 40.02 7.43 61.66s27.15 31.14 42.33 16.7" clip-rule="evenodd"/><path fill="url(#d)" fill-rule="evenodd" d="M134.58 126.78c11.23 17.68 26.24 11.21 44.82-6.47s26.29-51.54 22.47-57.55-32.84-5.7-51.42 11.98-27.09 34.37-15.87 52.04" clip-rule="evenodd"/><path fill="url(#e)" fill-rule="evenodd" d="M128.44 117.06c18.64 2.28 25.97-14.92 29.4-42.72 3.41-27.8-10.67-57.19-17-57.97-6.34-.77-27.64 24.28-31.06 52.08-3.43 27.8.03 46.33 18.66 48.6" clip-rule="evenodd"/><path fill="url(#f)" fill-rule="evenodd" d="M123.76 240c39.08 0 70.78-11.34 70.78-62.76s-31.7-93.62-70.78-93.62c-39.09 0-70.76 42.2-70.76 93.62S84.67 240 123.76 240" clip-rule="evenodd"/><path fill="#EAADCC" d="M159.5 166.74c5.59 0 10.11-2.1 10.11-4.7 0-2.59-4.52-4.69-10.1-4.69s-10.11 2.1-10.11 4.7c0 2.59 4.52 4.7 10.1 4.7m-74.86-2.86c5.54.68 10.29-.86 10.6-3.43s-3.91-5.21-9.46-5.9c-5.54-.67-10.29.86-10.6 3.44-.32 2.57 3.92 5.21 9.46 5.89"/><path stroke="#000" stroke-linecap="round" stroke-linejoin="round" stroke-width="6" d="M130.23 160.38a13.6 13.6 0 0 1-10.54 3.03q-5.98-.69-8.86-4.96"/><path fill="#000" fill-rule="evenodd" d="M91.08 135.94a10.08 10.08 0 0 1 7.75 16.98 10.1 10.1 0 0 1-14.3.5 10.06 10.06 0 0 1-.5-14.27 10 10 0 0 1 7.05-3.2" clip-rule="evenodd"/><path fill="#fff" fill-rule="evenodd" d="M91.61 144.38a3.3 3.3 0 1 0-6.58.24 3.3 3.3 0 0 0 6.58-.24" clip-rule="evenodd"/><path fill="#000" fill-rule="evenodd" d="M152.34 138.5a10.09 10.09 0 1 1 .7 20.19 10.08 10.08 0 0 1-7.75-16.98 10 10 0 0 1 7.05-3.2" clip-rule="evenodd"/><path fill="#fff" stroke="#fff" stroke-width="3" d="M100.13 145.73a8.7 8.7 0 1 1-17.38.6 8.7 8.7 0 0 1 17.38-.6Zm2.81-.1a11.51 11.51 0 1 0-23.01.82 11.51 11.51 0 0 0 23.01-.82Zm58.44 2.67a8.69 8.69 0 1 1-17.37.6 8.69 8.69 0 0 1 17.37-.6Zm2.82-.1a11.52 11.52 0 1 0-23.02.82 11.52 11.52 0 0 0 23.02-.82Z"/><path fill="#fff" fill-rule="evenodd" d="M152.87 146.95a3.29 3.29 0 1 0-6.58.23 3.29 3.29 0 0 0 6.58-.23" clip-rule="evenodd"/><path stroke="#ECB732" stroke-linecap="round" stroke-width="11" d="m70.16 182 34.8 36.16m-4.7-31.93-22.1 23.48M176.9 182l-34.8 36.16m4.7-31.93 22.1 23.48"/><path stroke="#FFC73B" stroke-linecap="round" stroke-width="11" d="m137.88 102.17-23.05 23.01m18.34 0-23.04-23"/></g></g><defs><linearGradient id="c" x1="7650.74" x2="13921.9" y1="-5867.43" y2="11695.8" gradientUnits="userSpaceOnUse"><stop stop-color="#52CE63"/><stop offset="1" stop-color="#51A256"/></linearGradient><linearGradient id="d" x1="6131.59" x2="-11449.7" y1="7642.74" y2="13929.1" gradientUnits="userSpaceOnUse"><stop stop-color="#52CE63"/><stop offset="1" stop-color="#51A256"/></linearGradient><linearGradient id="e" x1="7781.96" x2="4321.49" y1="952.47" y2="29199.5" gradientUnits="userSpaceOnUse"><stop stop-color="#8AE99C"/><stop offset="1" stop-color="#52CE63"/></linearGradient><linearGradient id="f" x1="23250" x2="19508.6" y1="13116.7" y2="74634.6" gradientUnits="userSpaceOnUse"><stop stop-color="#FFE56C"/><stop offset="1" stop-color="#FFC63A"/></linearGradient><clipPath id="a"><path fill="#fff" d="M0 0h256v256H0z"/></clipPath><clipPath id="b"><path fill="#fff" d="M53 16h150v224H53z"/></clipPath></defs></svg>
